assets/icons/24px/outline/battery-horizontal-charging-24px.svg

<svg fill="none" height="24" viewBox="0 0 24 24" width="24" xmlns="http://www.w3.org/2000/svg"><g stroke="#fff" stroke-linecap="round" stroke-linejoin="round" stroke-width="2"><path d="m3 11c0-1.88562 0-2.82843.58579-3.41421.58578-.58579 1.52859-.58579 3.41421-.58579h8c1.8856 0 2.8284 0 3.4142.58579.5858.58578.5858 1.52859.5858 3.41421v2c0 1.8856 0 2.8284-.5858 3.4142s-1.5286.5858-3.4142.5858h-8c-1.88562 0-2.82843 0-3.41421-.5858-.58579-.5858-.58579-1.5286-.58579-3.4142z"/><path d="m19 12.5v-1c0-.5523.4477-1 1-1s1 .4477 1 1v1c0 .5523-.4477 1-1 1s-1-.4477-1-1z" fill="#fff"/><path d="m7 11.5 3.9461 1.75.0538-2.5 4.0539 2"/></g></svg>

<svg width="24" height="24" viewBox="0 0 24 24" fill="none" xmlns="http://www.w3.org/2000/svg">
<path d="M3 11C3 9.11438 3 8.17157 3.58579 7.58579C4.17157 7 5.11438 7 7 7H15C16.8856 7 17.8284 7 18.4142 7.58579C19 8.17157 19 9.11438 19 11V13C19 14.8856 19 15.8284 18.4142 16.4142C17.8284 17 16.8856 17 15 17H7C5.11438 17 4.17157 17 3.58579 16.4142C3 15.8284 3 14.8856 3 13V11Z" stroke="white" stroke-width="2" stroke-linecap="round" stroke-linejoin="round"/>
<path d="M19 12.5V11.5C19 10.9477 19.4477 10.5 20 10.5C20.5523 10.5 21 10.9477 21 11.5V12.5C21 13.0523 20.5523 13.5 20 13.5C19.4477 13.5 19 13.0523 19 12.5Z" fill="white" stroke="white" stroke-width="2" stroke-linecap="round" stroke-linejoin="round"/>
<path d="M6.99997 11.5L10.9461 13.25L10.9999 10.75L15.0538 12.75" stroke="white" stroke-width="2" stroke-linecap="round" stroke-linejoin="round"/>
</svg>
